brandFactory_export/2.Regular/Router_2Regular.svg

<?xml version="1.0" encoding="UTF-8"?>
<svg width="24px" height="24px" viewBox="0 0 24 24" version="1.1" xmlns="http://www.w3.org/2000/svg" xmlns:xlink="http://www.w3.org/1999/xlink">
    <title>2.Regular/Router_2Regular</title>
    <g id="Symbols" stroke="none" stroke-width="1" fill="none" fill-rule="evenodd">
        <g id="2.Regular/Router_2Regular" fill="#5CB615" fill-rule="nonzero">
            <path d="M3.62352941,18.2857143 C4.18823529,18.2857143 4.55462185,18.5747899 4.55462185,19.1966387 C4.55462185,19.4957983 4.47058824,19.7176471 4.31932773,19.8689076 C4.15798319,20.0302521 3.91596639,20.107563 3.62352941,20.107563 C3.33109244,20.107563 3.09243697,20.0336134 2.92773109,19.8722689 C2.77647059,19.7210084 2.69243697,19.4991597 2.69243697,19.2 C2.69579832,18.5747899 3.05882353,18.2857143 3.62352941,18.2857143 Z M7.01176471,18.2857143 C7.57647059,18.2857143 7.94285714,18.5747899 7.94285714,19.1966387 C7.94285714,19.4957983 7.85882353,19.7176471 7.70756303,19.8689076 C7.54621849,20.0302521 7.30756303,20.107563 7.01176471,20.107563 C6.71932773,20.107563 6.48067227,20.0302521 6.31596639,19.8689076 C6.16470588,19.7176471 6.08067227,19.4957983 6.08067227,19.1966387 C6.08067227,18.5747899 6.44705882,18.2857143 7.01176471,18.2857143 Z M22.1445883,20.0470588 L22.1445883,18.1008403 C22.1445883,17.3613445 21.9831933,16.8201681 21.6638655,16.4941176 C21.3344538,16.1579832 20.7764706,15.9865546 20.0067227,15.9865546 L3.61680672,15.9865546 C2.84369748,15.9865546 2.28907563,16.1579832 1.95966387,16.4941176 C1.64033613,16.8201681 1.4789916,17.3613445 1.4789916,18.1008403 L1.4789916,20.0470588 C1.4789916,20.7865546 1.64033613,21.3277311 1.95966387,21.6537815 C2.28907563,21.989916 2.84369748,22.1613445 3.61680672,22.1613445 L20.010084,22.1613445 C20.7831933,22.1613445 21.3378151,21.989916 21.6672269,21.6537815 C21.9831933,21.3277311 22.1478992,20.7865546 22.1445883,20.0470588 Z M22.7294118,15.4823529 C23.3210084,16.0907563 23.6235294,16.9747899 23.6235294,18.1042017 L23.6235294,20.0504202 C23.6235294,21.1798319 23.3210084,22.0638655 22.7294118,22.6722689 C22.1109244,23.307563 21.1966387,23.6268908 20.0067227,23.6268908 L3.61680672,23.6268908 C2.42689076,23.6268908 1.51260504,23.307563 0.894117647,22.6722689 C0.299159664,22.0605042 0,21.1764706 0,20.0470588 L0,18.1008403 C0,16.9714286 0.299159664,16.0907563 0.894117647,15.4789916 C1.51260504,14.8436975 2.42689076,14.5243697 3.61680672,14.5243697 L5.63697479,14.5243697 L5.63697479,5.72773109 C5.63697479,5.32436975 5.96638655,4.99495798 6.37647059,4.99495798 C6.78319328,4.99495798 7.11596639,5.32436975 7.11596639,5.72773109 L7.11596639,14.5277311 L20.010084,14.5277311 C21.1966387,14.5277311 22.1109244,14.8470588 22.7294118,15.4823529 Z M13.3243697,5.70756303 C13.2941176,2.94117647 11.502521,1.28739496 11.4823529,1.27058824 C11.1831933,1.00168067 11.1596639,0.544537815 11.4285714,0.245378151 L11.4319328,0.242016807 C11.707563,-0.0571428571 12.1680672,-0.0806722689 12.4739496,0.188235294 C12.5680672,0.272268908 14.7630252,2.26554622 14.8,5.67058824 C14.8067227,5.78823529 14.9243697,9.1394958 12.5042017,11.2773109 C12.3697479,11.3983193 12.1915966,11.4621849 12.0134454,11.4621849 C11.805042,11.4621849 11.6033613,11.3747899 11.4621849,11.2201681 C11.1932773,10.9243697 11.2168067,10.4638655 11.512605,10.194958 C11.5159664,10.1915966 11.5193277,10.1915966 11.5193277,10.1882353 C13.4252101,8.50420168 13.3277311,5.73781513 13.3243697,5.70756303 L13.3243697,5.70756303 Z M10.2184874,5.73445378 C10.1983193,4.10420168 9.15630252,3.12941176 9.14285714,3.11932773 C8.84369748,2.85378151 8.81680672,2.39663866 9.08235294,2.09747899 C9.08571429,2.09411765 9.08907563,2.0907563 9.08907563,2.08739496 C9.36470588,1.78823529 9.82857143,1.76470588 10.1310924,2.03361345 C10.194958,2.0907563 11.6672269,3.42857143 11.6941176,5.70084034 C11.697479,5.76806723 11.7781513,8.01344538 10.1512605,9.4487395 C9.84537815,9.71428571 9.38151261,9.6907563 9.1092437,9.38823529 C8.84033613,9.08907563 8.86386555,8.63193277 9.16302521,8.36302521 L9.1697479,8.35630252 C10.2655462,7.39159664 10.2184874,5.7512605 10.2184874,5.73445378 Z" id="Router_2Regular"></path>
        </g>
    </g>
</svg>

<svg width="24" height="24" viewBox="0 0 24 24" xmlns="http://www.w3.org/2000/svg"><path d="M3.624 18.286c.564 0 .93.289.93.91 0 .3-.083.522-.235.673-.161.161-.403.239-.695.239-.293 0-.532-.074-.696-.236-.152-.151-.236-.373-.236-.672.004-.625.367-.914.932-.914zm3.388 0c.564 0 .93.289.93.91 0 .3-.083.522-.234.673-.162.161-.4.239-.696.239-.293 0-.531-.078-.696-.24-.151-.15-.235-.372-.235-.671 0-.622.366-.911.93-.911zm15.133 1.761v-1.946c0-.74-.162-1.28-.481-1.607-.33-.336-.888-.507-1.657-.507H3.617c-.773 0-1.328.171-1.657.507-.32.326-.481.867-.481 1.607v1.946c0 .74.161 1.28.48 1.607.33.336.885.507 1.658.507H20.01c.773 0 1.328-.171 1.657-.507.316-.326.48-.867.478-1.607zm.584-4.565c.592.609.895 1.493.895 2.622v1.946c0 1.13-.303 2.014-.895 2.622-.618.636-1.532.955-2.722.955H3.617c-1.19 0-2.104-.32-2.723-.955C.3 22.061 0 21.176 0 20.047v-1.946c0-1.13.3-2.01.894-2.622.619-.635 1.533-.955 2.723-.955h2.02V5.728c0-.404.33-.733.74-.733.406 0 .739.33.739.733v8.8H20.01c1.187 0 2.1.32 2.72.954zm-9.405-9.774c-.03-2.767-1.821-4.42-1.842-4.437A.724.724 0 0111.43.245l.003-.003a.745.745 0 011.042-.054c.094.084 2.289 2.078 2.326 5.483.007.117.124 3.468-2.296 5.606a.748.748 0 01-1.042-.057.727.727 0 01.05-1.025c.004-.003.007-.003.007-.007 1.906-1.684 1.809-4.45 1.805-4.48zm-3.106.026c-.02-1.63-1.062-2.605-1.075-2.615a.723.723 0 01-.054-1.032.745.745 0 011.042-.053c.064.057 1.536 1.395 1.563 3.667.003.067.084 2.312-1.543 3.748a.745.745 0 01-1.042-.06.724.724 0 01.054-1.026l.007-.007c1.096-.964 1.048-2.605 1.048-2.622z" fill="#5CB615" fill-rule="nonzero"/></svg>
